client/src/assets/public/images/icons/search.svg

<?xml version="1.0" encoding="UTF-8"?>
<svg width="24px" height="24px" viewBox="0 0 24 24" version="1.1" xmlns="http://www.w3.org/2000/svg" xmlns:xlink="http://www.w3.org/1999/xlink">
    <!-- Generator: Sketch 48.2 (47327) - http://www.bohemiancoding.com/sketch -->
    <title>Shape</title>
    <desc>Created with Sketch.</desc>
    <defs></defs>
    <g id="Home-2" stroke="none" stroke-width="1" fill="none" fill-rule="evenodd" transform="translate(-764.000000, -447.000000)">
        <g id="Header" fill="#FFFFFF" fill-rule="nonzero">
            <g id="Searchbox" transform="translate(192.000000, 429.000000)">
                <g id="Button" transform="translate(534.000000, 6.000000)">
                    <g id="search" transform="translate(38.000000, 12.000000)">
                        <path d="M17.0943125,15.08575 L16.0005,15.08575 L15.5898125,14.742875 C16.88925,13.165875 17.7099375,11.177 17.7099375,8.9143125 C17.709875,3.977 13.7435,0 8.8209375,0 C3.96575,0 0,3.977 0,8.9143125 C0,13.851625 3.96575,17.8285625 8.8890625,17.8285625 C11.07725,17.8285625 13.1285,17.005625 14.701,15.7030625 L15.1110625,16.046 L15.1110625,17.1429375 L21.94875,24 L24,21.942875 L17.0943125,15.08575 Z M8.8890625,15.08575 C5.4701875,15.08575 2.735125,12.3428125 2.735125,8.9143125 C2.735125,5.4856875 5.4701875,2.7429375 8.8890625,2.7429375 C12.3078125,2.7429375 15.0429375,5.4856875 15.0429375,8.9143125 C15.0429375,12.3428125 12.3078125,15.08575 8.8890625,15.08575 Z" id="Shape"></path>
                    </g>
                </g>
            </g>
        </g>
    </g>
</svg>

<svg xmlns="http://www.w3.org/2000/svg" width="24" height="24"><path d="M17.094 15.086H16l-.41-.343c1.3-1.577 2.12-3.566 2.12-5.83C17.7 3.977 13.744 0 8.82 0 3.966 0 0 3.977 0 8.914s3.966 8.914 8.89 8.914c2.188 0 4.24-.823 5.812-2.126l.4.343v1.097L21.95 24 24 21.943l-6.906-6.857zm-8.205 0c-3.42 0-6.154-2.743-6.154-6.17s2.735-6.17 6.154-6.17 6.154 2.743 6.154 6.17-2.735 6.17-6.154 6.17z" fill="#fff" fill-rule="nonzero"/></svg>
